svg/filled/console.svg

<svg width="24" height="24" viewBox="0 0 24 24" fill="none" xmlns="http://www.w3.org/2000/svg">
<path fill-rule="evenodd" clip-rule="evenodd" d="M3.21967 4.46967C3.51256 4.17678 3.98744 4.17678 4.28033 4.46967L11.2803 11.4697C11.5732 11.7626 11.5732 12.2374 11.2803 12.5303L4.28033 19.5303C3.98744 19.8232 3.51256 19.8232 3.21967 19.5303C2.92678 19.2374 2.92678 18.7626 3.21967 18.4697L9.68934 12L3.21967 5.53033C2.92678 5.23744 2.92678 4.76256 3.21967 4.46967Z" fill="black"/>
<path fill-rule="evenodd" clip-rule="evenodd" d="M9.25 19C9.25 18.5858 9.58579 18.25 10 18.25H20.25C20.6642 18.25 21 18.5858 21 19C21 19.4142 20.6642 19.75 20.25 19.75H10C9.58579 19.75 9.25 19.4142 9.25 19Z" fill="black"/>
</svg>

<svg xmlns="http://www.w3.org/2000/svg" viewBox="0 0 24 24" fill="currentColor">
  <path fill-rule="evenodd" d="M3.22 4.47a.75.75 0 011.06 0l7 7a.75.75 0 010 1.06l-7 7a.75.75 0 01-1.06-1.06L9.69 12 3.22 5.53a.75.75 0 010-1.06zM9.25 19a.75.75 0 01.75-.75h10.25a.75.75 0 010 1.5H10a.75.75 0 01-.75-.75z" clip-rule="evenodd"/>
</svg>
